img/icons/payment.svg

<svg width="20" height="16" viewBox="0 0 20 16" fill="none" xmlns="http://www.w3.org/2000/svg">
<path d="M1.21799 2.09204L2.10899 2.54603L1.21799 2.09204ZM2.0918 1.21799L2.54579 2.10899L2.0918 1.21799ZM2.0918 14.782L2.54579 13.891H2.54579L2.0918 14.782ZM1.21799 13.908L0.32698 14.362H0.32698L1.21799 13.908ZM18.7822 13.908L17.8912 13.454L18.7822 13.908ZM17.9078 14.782L17.4538 13.891L17.9078 14.782ZM18.7822 2.09204L17.8912 2.54603V2.54603L18.7822 2.09204ZM17.9078 1.21799L18.3618 0.32698V0.32698L17.9078 1.21799ZM5 10C4.44772 10 4 10.4477 4 11C4 11.5523 4.44772 12 5 12V10ZM9 12C9.55229 12 10 11.5523 10 11C10 10.4477 9.55229 10 9 10V12ZM1 6C0.447715 6 0 6.44772 0 7C0 7.55228 0.447715 8 1 8V6ZM19 8C19.5523 8 20 7.55228 20 7C20 6.44772 19.5523 6 19 6V8ZM1 4C0.447715 4 0 4.44772 0 5C0 5.55228 0.447715 6 1 6V4ZM19 6C19.5523 6 20 5.55228 20 5C20 4.44772 19.5523 4 19 4V6ZM18 4.19995V11.8H20V4.19995H18ZM15.8002 14H4.2002V16H15.8002V14ZM2 11.8V4.19995H0V11.8H2ZM4.2002 2H15.8002V0H4.2002V2ZM2 4.19995C2 3.6234 2.00078 3.25114 2.02393 2.96783C2.04612 2.6962 2.0838 2.59549 2.10899 2.54603L0.32698 1.63805C0.134191 2.01642 0.0628722 2.40961 0.0305698 2.80495C-0.000777841 3.18861 0 3.6564 0 4.19995H2ZM4.2002 0C3.65663 0 3.18874 -0.000777125 2.80498 0.0305674C2.40962 0.0628601 2.01624 0.134156 1.63781 0.32698L2.54579 2.10899C2.59517 2.08383 2.69595 2.04613 2.9678 2.02393C3.25126 2.00078 3.62365 2 4.2002 2V0ZM2.10899 2.54603C2.205 2.35761 2.35788 2.20474 2.54579 2.10899L1.63781 0.32698C1.07306 0.614732 0.614469 1.07382 0.32698 1.63805L2.10899 2.54603ZM4.2002 14C3.62367 14 3.25127 13.9992 2.96782 13.9761C2.69598 13.9538 2.59519 13.9161 2.54579 13.891L1.63781 15.673C2.01623 15.8658 2.40959 15.9371 2.80496 15.9694C3.18873 16.0008 3.65662 16 4.2002 16V14ZM0 11.8C0 12.3435 -0.000777602 12.8113 0.030569 13.195C0.0628681 13.5904 0.134179 13.9836 0.32698 14.362L2.10899 13.454C2.08381 13.4046 2.04613 13.3039 2.02393 13.0322C2.00078 12.7488 2 12.3765 2 11.8H0ZM2.54579 13.891C2.35778 13.7952 2.20494 13.6424 2.10899 13.454L0.32698 14.362C0.614523 14.9264 1.07317 15.3853 1.63781 15.673L2.54579 13.891ZM18 11.8C18 12.3766 17.9993 12.7489 17.9762 13.0323C17.954 13.3041 17.9163 13.4047 17.8912 13.454L19.6732 14.362C19.8661 13.9835 19.9373 13.5902 19.9696 13.1949C20.0008 12.8112 20 12.3434 20 11.8H18ZM15.8002 16C16.3438 16 16.8115 16.0008 17.1951 15.9694C17.5904 15.9371 17.9835 15.8657 18.3618 15.673L17.4538 13.891C17.4043 13.9162 17.3036 13.9539 17.0321 13.9761C16.7489 13.9992 16.3767 14 15.8002 14V16ZM17.8912 13.454C17.7956 13.6417 17.6425 13.7948 17.4538 13.891L18.3618 15.673C18.9257 15.3856 19.3854 14.927 19.6732 14.362L17.8912 13.454ZM20 4.19995C20 3.6565 20.0008 3.1887 19.9695 2.80511C19.9373 2.40983 19.8661 2.01653 19.6732 1.63805L17.8912 2.54603C17.9164 2.59537 17.954 2.69598 17.9762 2.96767C17.9993 3.25105 18 3.6233 18 4.19995H20ZM15.8002 2C16.3768 2 16.7489 2.00078 17.0321 2.02393C17.3036 2.04611 17.4043 2.08377 17.4538 2.10899L18.3618 0.32698C17.9835 0.134214 17.5904 0.06288 17.1951 0.0305714C16.8115 -0.000778198 16.3437 0 15.8002 0V2ZM19.6732 1.63805C19.3854 1.07316 18.9259 0.614393 18.3618 0.32698L17.4538 2.10899C17.6424 2.20507 17.7956 2.35828 17.8912 2.54603L19.6732 1.63805ZM5 12H9V10H5V12ZM1 8H19V6H1V8ZM1 6H19V4H1V6Z" fill="#5D5D62"/>
</svg>

<svg width="20" height="16" fill="none" xmlns="http://www.w3.org/2000/svg"><path d="m1.218 2.092.891.454-.891-.454Zm.874-.874.454.891-.454-.891Zm0 13.564.454-.891-.454.891Zm-.874-.874-.891.454.891-.454Zm17.564 0-.89-.454.89.454Zm-.874.874-.454-.891.454.891Zm.874-12.69-.89.454.89-.454Zm-.874-.874.454-.891-.454.891ZM5 10a1 1 0 1 0 0 2v-2Zm4 2a1 1 0 1 0 0-2v2ZM1 6a1 1 0 0 0 0 2V6Zm18 2a1 1 0 1 0 0-2v2ZM1 4a1 1 0 0 0 0 2V4Zm18 2a1 1 0 1 0 0-2v2Zm-1-1.8v7.6h2V4.2h-2ZM15.8 14H4.2v2h11.6v-2ZM2 11.8V4.2H0v7.6h2ZM4.2 2h11.6V0H4.2v2ZM2 4.2c0-.577 0-.949.024-1.232.022-.272.06-.373.085-.422L.327 1.638c-.193.378-.264.772-.296 1.167C-.001 3.189 0 3.656 0 4.2h2ZM4.2 0c-.543 0-1.01 0-1.395.03-.395.033-.789.104-1.167.297l.908 1.782c.05-.025.15-.063.422-.085C3.25 2 3.624 2 4.2 2V0ZM2.11 2.546a1 1 0 0 1 .437-.437L1.638.327A3 3 0 0 0 .327 1.638l1.782.908ZM4.2 14c-.576 0-.949 0-1.232-.024-.272-.022-.373-.06-.422-.085l-.908 1.782c.378.193.772.264 1.167.296.384.032.852.031 1.395.031v-2ZM0 11.8c0 .543 0 1.011.03 1.395.033.395.104.789.297 1.167l1.782-.908c-.025-.05-.063-.15-.085-.422C2 12.75 2 12.377 2 11.8H0Zm2.546 2.091a1 1 0 0 1-.437-.437l-1.782.908a3 3 0 0 0 1.31 1.311l.909-1.782ZM18 11.8c0 .577 0 .949-.024 1.232-.022.272-.06.373-.085.422l1.782.908c.193-.379.264-.772.297-1.167.03-.384.03-.852.03-1.395h-2ZM15.8 16c.544 0 1.011 0 1.395-.03.395-.033.788-.104 1.167-.297l-.908-1.782c-.05.025-.15.063-.422.085C16.75 14 16.377 14 15.8 14v2Zm2.091-2.546a1 1 0 0 1-.437.437l.908 1.782a3 3 0 0 0 1.311-1.311l-1.782-.908ZM20 4.2c0-.544 0-1.011-.03-1.395-.033-.395-.104-.788-.297-1.167l-1.782.908c.025.05.063.15.085.422C18 3.25 18 3.623 18 4.2h2ZM15.8 2c.577 0 .949 0 1.232.024.272.022.372.06.422.085l.908-1.782c-.378-.193-.772-.264-1.167-.296C16.811-.001 16.344 0 15.8 0v2Zm3.873-.362A3 3 0 0 0 18.362.327l-.908 1.782a1 1 0 0 1 .437.437l1.782-.908ZM5 12h4v-2H5v2ZM1 8h18V6H1v2Zm0-2h18V4H1v2Z" fill="#5D5D62"/></svg>
